assets/img/safety6.svg

<svg width="101" height="101" viewBox="0 0 101 101" fill="none" xmlns="http://www.w3.org/2000/svg">
<circle cx="50.6758" cy="50.4863" r="50" fill="#00AEEF"/>
<path d="M78.4615 78.5868H72.182L65.9026 72.3073H34.8193L28.5399 78.5868H22.2604V41.224H78.1475V78.5868H78.4615ZM22.5744 28.6651C22.5744 25.2114 25.4001 22.3857 28.8538 22.3857H47.3782V34.9446H22.5744V28.6651ZM53.6577 34.9446V28.6651H78.4615V22.3857H53.6577V16.1062H28.8538C21.9464 16.1062 16.2949 21.7577 16.2949 28.6651V84.8662H35.1333V78.5868H66.2166V84.8662H85.0549V34.9446H53.6577Z" fill="white"/>
<path d="M72.4958 60.0624H66.2163V66.3418H72.4958V60.0624Z" fill="white"/>
</svg>

<svg width="101" height="101" fill="none" xmlns="http://www.w3.org/2000/svg"><circle cx="50.676" cy="50.486" r="50" fill="#00AEEF"/><path d="M78.462 78.587h-6.28l-6.28-6.28H34.82l-6.28 6.28h-6.28V41.224h55.887v37.363h.314ZM22.574 28.665c0-3.454 2.826-6.28 6.28-6.28h18.524v12.56H22.574v-6.28Zm31.084 6.28v-6.28H78.46v-6.28H53.659v-6.279H28.854c-6.908 0-12.56 5.652-12.56 12.56v56.2h18.84v-6.28h31.083v6.28h18.838V34.945H53.658Z" fill="#fff"/><path d="M72.496 60.062h-6.28v6.28h6.28v-6.28Z" fill="#fff"/></svg>
